X:1
T:Title
%%score ( 1 2 ) ( 3 4 )
L:1/8
Q:1/4=93
M:4/4
K:G
V:1 treble nm="Grand Piano, Soprano"
V:2 treble 
V:3 bass nm="Choir Pad, Have Faith in God Stephens"
V:4 bass 
V:1
 [GB][Gc][Ge][Gd] [GB][DG][DF][FA] | [EG][CE][CE][B,D]- [B,D]3/2 z/ z2 | %2
w: By~May~Agnew~Stephens * * * * * * *||
 [CE][CF][B,G][CF] [DG][DA][DB][Dd] | [Dc][DB] [DA]6 | [DB][Ec][Ge][Gd] [GB][DG][DF][FA] | %5
w: |||
 [EG][CE][CE][B,D]- [B,D]3/2 z/ z2 | D[DE][DF][DA] [Dd][DB][^CA][C^G] | %7
w: ||
 [^CG][CE] D2- [B,D-]2 [=CD]>[DB] | [B,G]>[CE] [B,D]4- [B,D]>[B,G] | [CF]>[^CE] [DF]4- [DF]>D | %10
w: |||
 D>[^CE] [=CF]4- [CF]>[B,G] | [CA]>[^C_B] [D=B]4- [DB]>[DB] | [B,G]>[CE] [B,D]4- [B,D]>[GB] | %13
w: |||
 [Gc]>[GB] [Ge]4- [Ge]>[CE] | [CF]>[EG] [DB]4- [DB]>[CE] | %15
w: ||
 [CF]>[CD] G->[B,G-] [CG-]>[CG-] [B,G]2- | [B,G]4 z4 |] %17
w: ||
V:2
 x8 | x8 | x8 | x8 | x8 | x8 | x8 | z2 A,2 z4 | x8 | x8 | x8 | x8 | x8 | x8 | x8 | z2 B,2 z4 | %16
 x8 |] %17
V:3
 [G,D][G,E][G,C][G,B,] [G,D][G,B,][C,A,][C,C] | [C,C][C,G,][G,,G,][G,,G,]- [G,,G,]3/2 z/ z2 | %2
 [C,G,][A,,D,][G,,D,][A,,D,] [B,,D,][D,F,][G,,G,][B,,G,] | [A,,F,][G,,G,] [D,F,]6 | %4
 G,G,[G,C][G,B,] [G,D][G,B,][C,A,][C,C] | [C,C][C,G,][G,,G,][G,,G,]- [G,,G,]3/2 z/ z2 | %6
 [G,B,][G,B,]A,[A,,F,] [A,,F,][A,,F,][A,,E,][A,,E,] | z2 F,2 z4 | %8
 z2 z z/ [G,,G,]/ [G,,G,]>[G,,G,] [G,,G,]2 | z2 z z/ [D,A,]/ [D,F,]>[D,A,] [D,C]>D, | %10
 z2 z z/ [D,A,]/ [D,A,]>[D,A,] [D,A,]2 | z2 z z/ [G,,G,]/ [G,,G,]>[G,,G,] [G,,G,]2 | %12
 z2 z z/ [G,,G,]/ [G,,G,]>[G,,G,] [G,,G,]2 | z2 z z/ [C,C]/ [C,C]>[C,C] [C,C]2 | %14
 z2 z z/ [D,G,]/ [D,G,]>[D,G,] [D,G,]>[D,A,] | %15
 [D,A,]>[D,F,] [G,,D,]>[G,,D,] [G,,E,]>[G,,^D,] [G,,=D,]2- | [G,,D,]4 z4 |] %17
V:4
 x8 | x8 | x8 | x8 | x8 | x8 | x8 | [A,,E,][A,,G,] D,2- [D,-G,]2 [D,A,]2 | x8 | x8 | x8 | x8 | x8 | %13
 x8 | x8 | x8 | x8 |] %17

